X:1
T:As I Came In By Fisherrow
M:4/4
L:1/4
K:G
 G| G D D D| D D D2| D E G A| B2 A| z| G E E G| E/2 D3/2 E G| D E G A|\
 B2 A| z| G- A B- G| A- B c- A| G A B- G| A2 G| E| G A B3/2 G/2| A B c3/2 A/2|\
 B d E c| B2 A||
